images/icon/community.svg

<svg width="40" height="40" viewBox="0 0 40 40" fill="none" xmlns="http://www.w3.org/2000/svg">
<path d="M36.1026 29.359H3.62393C2.73077 29.359 2 28.6282 2 27.735V6.6239C2 5.73074 2.73077 4.99997 3.62393 4.99997H36.1026C36.9957 4.99997 37.7265 5.73074 37.7265 6.6239V27.735C37.7265 28.6282 36.9957 29.359 36.1026 29.359Z" stroke="white" stroke-width="1.7" stroke-miterlimit="10" stroke-linecap="round" stroke-linejoin="round"/>
<path d="M17.4272 34.2308V29.359" stroke="white" stroke-width="1.7" stroke-miterlimit="10" stroke-linecap="round" stroke-linejoin="round"/>
<path d="M22.2993 29.359V34.2308" stroke="white" stroke-width="1.7" stroke-miterlimit="10" stroke-linecap="round" stroke-linejoin="round"/>
<path d="M12.5553 34.2308H27.1707" stroke="white" stroke-width="1.7" stroke-miterlimit="10" stroke-linecap="round" stroke-linejoin="round"/>
<path d="M2 24.4871H37.7265" stroke="white" stroke-width="1.7" stroke-miterlimit="10" stroke-linecap="round" stroke-linejoin="round"/>
<path d="M19.051 26.9231H20.675" stroke="white" stroke-width="1.7" stroke-miterlimit="10" stroke-linecap="round" stroke-linejoin="round"/>
<path d="M14.1797 9.05974V13.9315H19.0515C19.0515 11.252 16.8592 9.05974 14.1797 9.05974Z" stroke="white" stroke-width="1.7" stroke-miterlimit="10" stroke-linecap="round" stroke-linejoin="round"/>
<path d="M17.4276 15.5557C17.4276 18.2352 15.2352 20.4275 12.5558 20.4275C9.87627 20.4275 7.68396 18.2352 7.68396 15.5557C7.68396 12.8762 9.87627 10.6839 12.5558 10.6839" stroke="white" stroke-width="1.7" stroke-miterlimit="10" stroke-linecap="round" stroke-linejoin="round"/>
<path d="M22.2993 12.3077H32.8549" stroke="white" stroke-width="1.7" stroke-miterlimit="10" stroke-linecap="round" stroke-linejoin="round"/>
<path d="M22.2993 15.5556H32.8549" stroke="white" stroke-width="1.7" stroke-miterlimit="10" stroke-linecap="round" stroke-linejoin="round"/>
<path d="M22.2993 18.8035H28.795" stroke="white" stroke-width="1.7" stroke-miterlimit="10" stroke-linecap="round" stroke-linejoin="round"/>
</svg>

<svg width="40" height="40" fill="none" xmlns="http://www.w3.org/2000/svg"><path d="M36.103 29.359H3.623c-.892 0-1.623-.73-1.623-1.624V6.624C2 5.73 2.73 5 3.624 5h32.479c.893 0 1.623.73 1.623 1.624v21.111c0 .893-.73 1.624-1.623 1.624zM17.427 34.23v-4.87m4.873-.001v4.872m-9.745-.001h14.616M2 24.487h35.727m-18.676 2.436h1.624" stroke="#fff" stroke-width="1.7" stroke-miterlimit="10" stroke-linecap="round" stroke-linejoin="round"/><path d="M14.18 9.06v4.871h4.872A4.886 4.886 0 0014.18 9.06z" stroke="#fff" stroke-width="1.7" stroke-miterlimit="10" stroke-linecap="round" stroke-linejoin="round"/><path d="M17.428 15.556a4.886 4.886 0 01-4.872 4.871 4.886 4.886 0 01-4.872-4.871 4.886 4.886 0 014.872-4.872m9.744 1.624h10.555M22.3 15.556h10.555M22.3 18.803h6.495" stroke="#fff" stroke-width="1.7" stroke-miterlimit="10" stroke-linecap="round" stroke-linejoin="round"/></svg>
